src/assets/images/icons/truck.svg

<svg width="24" height="24" viewBox="0 0 24 24" fill="none" xmlns="http://www.w3.org/2000/svg">
<path d="M16 16V3H1V16H16ZM16 16H23V11L20 8H16V16ZM8 18.5C8 19.8807 6.88071 21 5.5 21C4.11929 21 3 19.8807 3 18.5C3 17.1193 4.11929 16 5.5 16C6.88071 16 8 17.1193 8 18.5ZM21 18.5C21 19.8807 19.8807 21 18.5 21C17.1193 21 16 19.8807 16 18.5C16 17.1193 17.1193 16 18.5 16C19.8807 16 21 17.1193 21 18.5Z" stroke="#181D27" stroke-width="2" stroke-linecap="round" stroke-linejoin="round"/>
</svg>

<svg xmlns="http://www.w3.org/2000/svg" fill="none" viewBox="0 0 24 24"><path stroke="#181D27" stroke-linecap="round" stroke-linejoin="round" stroke-width="2" d="M16 16V3H1v13zm0 0h7v-5l-3-3h-4zm-8 2.5a2.5 2.5 0 1 1-5 0 2.5 2.5 0 0 1 5 0m13 0a2.5 2.5 0 1 1-5 0 2.5 2.5 0 0 1 5 0"/></svg>
